public/avatar/body/221.svg

<svg xmlns:xlink="http://www.w3.org/1999/xlink" height="82" width="84.85" xmlns="http://www.w3.org/2000/svg"><g transform="translate(37.4 42.25)"><use height="38" transform="translate(-11.95 -17.45)" width="32.05" xlink:href="#a"/><use height="38.95" transform="translate(-12.45 -17.95)" width="33.05" xlink:href="#b"/><use height="25.15" transform="translate(-15.25 .1)" width="39.75" xlink:href="#c"/></g><defs><path d="M27.35 7.4q2.15 4.15 3.55 8.75 1.45 4.7 1.15 9.5-.35 4.95-4.2 8.1-3.8 3.2-8.75 4.05l-2.6.2q-3.6 0-7.05-1.15-4.65-1.6-7.1-5.5Q-.2 27.4.05 23q.2-4.4 2-9.3Q3.85 8.75 7 5.05 10.1 1.3 14.7.1l1.8-.1q1.9.05 3.7.8 4.75 2.05 7.15 6.6" fill="#cb5656" fill-rule="evenodd" transform="translate(-.05)" id="d"/><path d="M27.35 7.4Q24.95 2.85 20.2.8 17.55-.3 14.7.1 10.1 1.3 7 5.05q-3.15 3.7-4.95 8.65-1.8 4.9-2 9.3-.25 4.4 2.3 8.35 2.45 3.9 7.1 5.5 4.65 1.55 9.65.95 4.95-.85 8.75-4.05 3.85-3.15 4.2-8.1.3-4.8-1.15-9.5-1.4-4.6-3.55-8.75Z" fill="none" stroke="#000" stroke-linecap="round" stroke-linejoin="round" transform="translate(.45 .5)" id="e"/><use height="38" width="32.05" xlink:href="#d" id="a"/><use height="38.95" width="33.05" xlink:href="#e" id="b"/><g id="c" fill-rule="evenodd"><path d="M22 20.55q.25.15.15.5l-.5.3L20 21.3l.4.55.1.25-.1.25-.45.25-2.4-.2.25.75v.15l-.15.3-.5.1-1.55-.55-.05 1.2-.3.4-.5-.05-1.6-1.2-.3.9-.3.3-.5-.1-1-.85L10.4 25l-.45.25q-.3 0-.4-.2l-1-1.45-1.05.85-.5.1-.35-.4-.15-1.45-1.75.5q-.35.1-.5-.15l-.15-.3.1-.25 1-1.75-2.2.05.4 2.3v.05l-.15.4-.5.05-1.6-.6-.2 1.35-.3.35-.5-.05-1.75-1.45-.55 1.05-.4.3-.45-.2-1-1.15-1.2.95-.55.05-.3-.45.05-.6-.8.6-.5.05-.3-.4-.05-1.15-2.4.75q-.25.1-.45-.2l-.1-.25.1-.2q.25-.45.4-1.3l-2.6.05-.35-.35.15-.45q3.05-2.5 3.15-5.75 0-.45.5-.45l.4.2q21.65 3.4 26.35.15l.5-.05.3.4q.15 2.8 3.7 5.75" transform="translate(15.25 -.1)"/><path d="m2.35 22.55-2.05-.8-.1 1.85-2.1-1.85-.75 1.75-1.25-1.45-1.15 1.05-.05-1.7-1.7 1.4v-2q-1.9 1.15-2.55 1.25l.25-2.15q-1.2.6-2.45.35Q-9.2 17.3-8.9 15.3q21.2 2.95 26.3.2.6 2.6 3.25 5l-2.1-.15.9 1.45-3-.3.5 1.4-2.2-.85.1 1.9-2.25-1.85-.3 1.8-1.5-1.35-.85 1.8-1.15-2.2-1.4 1.35-.15-2.1-1.8.8 1.25-2.45H1.8l.55 2.8" fill="#a30000" transform="translate(15.25 -.1)"/><path d="M.3 21.75.2 23.6l-2.1-1.85-.75 1.75-1.25-1.45-1.15 1.05-.05-1.7-.8.65q1.55-3.4 6.1-3.4l8.3-.35q0 1.95-1.25 3.35v-.25l-1.8.8 1.25-2.45H1.8l.55 2.8-2.05-.8m11.65-5.1q3.7-.25 5.45-1.15.6 2.6 3.25 5l-2.1-.15.9 1.45-3-.3.5 1.4-2.2-.85.1 1.9-1.25-1q0-3.3-1.65-6.3" fill="#600" transform="translate(15.25 -.1)"/><path d="M18.7 14.2q.15.4-.1 1.55-2.2 2.15-11.8 2.6-10.75.5-16.75-3l-.15-1.5q8.35 3.65 28.8.35" transform="translate(15.25 -.1)"/><path d="M2.25 15.85q.95 2.05.6 2.1Q1.2 21.1.6 20.9l-2-1.55q3.2-3.45 3.65-3.5m3.6.4q.45 0 4.2 2.85-1 1.55-1.7 1.9-.5.25-2.75-2.6-.3 0 .25-2.15" transform="translate(15.25 -.1)"/><path d="m6.9 15.6-.45.3q-7.9.9-13.7-.85-4.35-1.35-4.85-2.75-.35-.85-.45-5.3-.1-5.05.9-5.55l.45-.05q3.15.75 9 5.25 5.85 4.45 9.05 8.5.2.25.05.45" transform="translate(15.25 -.1)"/><path d="M-11.05 12q-.35-.9-.55-4.9-.2-4.3.5-4.65 3 1 8.05 4.7 5.45 4.05 8.45 7.9-11.1.75-16.45-3.05" fill="#a30000" transform="translate(15.25 -.1)"/><path d="M1.5 10.9q2.4 2.2 3.9 4.15-11.1.75-16.45-3.05l-.15-1.5q.65 0 2.65.65 1.55.5 2.65 0l-.75 1.5q-.1.4 1.15 1 6.95 2.45 7-2.75" fill="#600" transform="translate(15.25 -.1)"/><path d="M8.05 15.55q-.3.75-1.55 1-2.55.3-3.65-.85-2.7-3.95-8.5-8.1-4.75-3.4-7.15-4.15l-.35-.35q-.2-1.5 1.3-2.9l.45-.1q2.9.2 9.5 5.05Q5.25 10.4 8 15.25l.05.3" transform="translate(15.25 -.1)"/><path d="M6.95 15.4q-1.35.8-3.2-.2Q1.1 11.2-4.8 7-9.6 3.6-12 2.85q-.1-1 .8-1.75 2.7.2 8.75 4.6 6.7 4.9 9.4 9.7" fill="#a30000" transform="translate(15.25 -.1)"/><path d="M6.95 15.4q-1.35.8-3.2-.2l-5.65-6 3.8 2.65q.25-2.4-6.35-7.5 8.1 5.3 11.4 11.05" fill="#600" transform="translate(15.25 -.1)"/><path d="m20.2 1.85.45.05q1.55.85.1 10.85-.55 1.4-4.95 2.6l-13.75.45-.4-.25q-.15-.25.05-.45 3.3-4 9.35-8.3 6-4.3 9.15-4.95" transform="translate(15.25 -.1)"/><path d="M3.2 15q3.15-3.75 8.7-7.65 5.2-3.6 8.2-4.45.65.35.3 4.65-.3 3.95-.7 4.9-5.6 3.6-16.5 2.55" fill="#a30000" transform="translate(15.25 -.1)"/><path d="M14.25 11.6q0-1.35-1.05-1.1l1.75-1.95q.3.55-.1 3.2-.25 1.4 1.9.3.4-2.1-.4-3.8-.8-1.6-2.05-2.05l5.8-3.3q.65.35.3 4.65-.3 3.95-.7 4.9-5.6 3.6-16.5 2.55l2.1-2.25q1 1.25 3.4 1.45l3.8-.55q1.75-.7 1.75-2.05" fill="#600" transform="translate(15.25 -.1)"/><path d="m21.7 3.5-.35.35q-2.4.7-7.25 3.95-6 4-8.75 7.85-1.25 1.15-3.7.75-1.25-.25-1.5-1v-.35q2.9-4.75 10.25-9.8Q17.15.6 20.05.45l.45.15q1.5 1.3 1.2 2.9" transform="translate(15.25 -.1)"/><path d="M1.25 15.25q2.85-4.7 9.7-9.4 6.15-4.25 8.9-4.4.9.75.75 1.75-2.4.7-7.35 4-6 4-8.85 7.9l-3.15.15" fill="#a30000" transform="translate(15.25 -.1)"/><path d="M19.85 1.45q.9.75.75 1.75-2.4.7-7.35 4-6 4-8.85 7.9l-1.45.4q2.2-3.5 6.6-6.75 4-2.65 7.95-5.35-2.7.3-6.55 2.45 6.2-4.3 8.9-4.4" fill="#600" transform="translate(15.25 -.1)"/><path d="m-8.8 7.5-.55-.6.4.8.15-.2m.9-3.3-.85 1.95 1.2 1.25-.65.95 1.35 1.45-2.05 1.55-.15-.75Q-10 6.35-11.5 6.05q-.55-.1-1.35.8l-.3.4-2.1-1.55 1.45-1-1.1-1.55 2.85.2.75-1.8 1.35 2.65h2.05" transform="translate(15.25 -.1)"/><path d="M-9.95 7.2q-1.25-2.9-3-.8l-1.1-.7 1.25-.75-.8-1.1 2 .45.4-1.3.75 1.95 1.55-.05-.4 1.35 1.1 1.2-.6.95 1.25 1.35-1.55.75q-.25-1.85-.85-3.3" fill="#a30000" transform="translate(15.25 -.1)"/><path d="m18.05 7.45.15.2.4-.8-.55.6m2.5-5.95.7 1.8 2.9-.25-1.1 1.6 1.45 1-2.1 1.55-.3-.4q-.8-.9-1.35-.8-1.5.3-2.45 4.55l-.15.75-2.05-1.55 1.35-1.45-.65-.95L18 6.1l-.85-1.95h2.05l1.35-2.65" transform="translate(15.25 -.1)"/><path d="m23.3 5.6-1.1.75q-1.8-2.1-3 .8-.6 1.45-.85 3.3L16.8 9.7l1.25-1.35-.6-.95 1.1-1.2-.45-1.35 1.6.05.75-1.95.4 1.3 2-.5-.8 1.15 1.25.7" fill="#600" transform="translate(15.25 -.1)"/></g></defs></svg>

<?xml version="1.0" encoding="UTF-8" standalone="no"?>
<svg xmlns:xlink="http://www.w3.org/1999/xlink" height="82.0px" width="84.85px" xmlns="http://www.w3.org/2000/svg">
  <g transform="matrix(1.0, 0.0, 0.0, 1.0, 37.4, 42.25)">
    <use height="38.0" transform="matrix(1.0, 0.0, 0.0, 1.0, -11.95, -17.45)" width="32.05" xlink:href="#sprite0"/>
    <use height="38.95" transform="matrix(1.0, 0.0, 0.0, 1.0, -12.45, -17.95)" width="33.05" xlink:href="#sprite1"/>
    <use height="25.15" transform="matrix(1.0, 0.0, 0.0, 1.0, -15.25, 0.1)" width="39.75" xlink:href="#shape2"/>
  </g>
  <defs>
    <g id="sprite0" transform="matrix(1.0, 0.0, 0.0, 1.0, -0.05, 0.0)">
      <use height="38.0" transform="matrix(1.0, 0.0, 0.0, 1.0, 0.05, 0.0)" width="32.05" xlink:href="#shape0"/>
    </g>
    <g id="shape0" transform="matrix(1.0, 0.0, 0.0, 1.0, -0.05, 0.0)">
      <path d="M27.35 7.4 Q29.5 11.55 30.9 16.15 32.35 20.85 32.05 25.65 31.7 30.6 27.85 33.75 24.05 36.95 19.1 37.8 L16.5 38.0 Q12.9 38.0 9.45 36.85 4.8 35.25 2.35 31.35 -0.2 27.4 0.05 23.0 0.25 18.6 2.05 13.7 3.85 8.75 7.0 5.05 10.1 1.3 14.7 0.1 L16.5 0.0 Q18.4 0.05 20.2 0.8 24.95 2.85 27.35 7.4" fill="#cb5656" fill-rule="evenodd" stroke="none"/>
    </g>
    <g id="sprite1" transform="matrix(1.0, 0.0, 0.0, 1.0, 0.45, 0.5)">
      <use height="38.95" transform="matrix(1.0, 0.0, 0.0, 1.0, -0.45, -0.5)" width="33.05" xlink:href="#shape1"/>
    </g>
    <g id="shape1" transform="matrix(1.0, 0.0, 0.0, 1.0, 0.45, 0.5)">
      <path d="M27.35 7.4 Q24.95 2.85 20.2 0.8 17.55 -0.3 14.7 0.1 10.1 1.3 7.0 5.05 3.85 8.75 2.05 13.7 0.25 18.6 0.05 23.0 -0.2 27.4 2.35 31.35 4.8 35.25 9.45 36.85 14.1 38.4 19.1 37.8 24.05 36.95 27.85 33.75 31.7 30.6 32.05 25.65 32.35 20.85 30.9 16.15 29.5 11.55 27.35 7.4 Z" fill="none" stroke="#000000" stroke-linecap="round" stroke-linejoin="round" stroke-width="1.0"/>
    </g>
    <g id="shape2" transform="matrix(1.0, 0.0, 0.0, 1.0, 15.25, -0.1)">
      <path d="M22.0 20.55 Q22.25 20.7 22.15 21.05 L21.65 21.35 20.0 21.3 20.4 21.85 20.5 22.1 20.4 22.35 19.95 22.6 17.55 22.4 17.8 23.15 17.8 23.3 17.65 23.6 17.15 23.7 15.6 23.15 15.55 24.35 15.25 24.75 14.75 24.7 13.15 23.5 12.85 24.4 12.55 24.7 12.05 24.6 11.05 23.75 10.4 25.0 9.95 25.25 Q9.65 25.25 9.55 25.05 L8.55 23.6 7.5 24.45 7.0 24.55 6.65 24.15 6.5 22.7 4.75 23.2 Q4.4 23.3 4.25 23.05 L4.1 22.75 4.2 22.5 5.2 20.75 3.0 20.8 3.4 23.1 3.4 23.15 3.25 23.55 2.75 23.6 1.15 23.0 0.95 24.35 0.65 24.7 0.15 24.65 -1.6 23.2 -2.15 24.25 -2.55 24.55 -3.0 24.35 -4.0 23.2 -5.2 24.15 -5.75 24.2 -6.05 23.75 -6.0 23.15 -6.8 23.75 -7.3 23.8 -7.6 23.4 -7.65 22.25 -10.05 23.0 Q-10.3 23.1 -10.5 22.8 L-10.6 22.55 -10.5 22.35 Q-10.25 21.9 -10.1 21.05 L-12.7 21.1 -13.05 20.75 -12.9 20.3 Q-9.85 17.8 -9.75 14.55 -9.75 14.1 -9.25 14.1 L-8.85 14.3 Q12.8 17.7 17.5 14.45 L18.0 14.4 18.3 14.8 Q18.45 17.6 22.0 20.55" fill="#000000" fill-rule="evenodd" stroke="none"/>
      <path d="M2.35 22.55 L0.3 21.75 0.2 23.6 -1.9 21.75 -2.65 23.5 -3.9 22.05 -5.05 23.1 -5.1 21.4 -6.8 22.8 -6.8 20.8 Q-8.7 21.95 -9.35 22.05 L-9.1 19.9 Q-10.3 20.5 -11.55 20.25 -9.2 17.3 -8.9 15.3 12.3 18.25 17.4 15.5 18.0 18.1 20.65 20.5 L18.55 20.35 19.45 21.8 16.45 21.5 16.95 22.9 14.75 22.05 14.85 23.95 12.6 22.1 12.3 23.9 10.8 22.55 9.95 24.35 8.8 22.15 7.4 23.5 7.25 21.4 5.45 22.2 6.7 19.75 1.8 19.75 2.35 22.55" fill="#a30000" fill-rule="evenodd" stroke="none"/>
      <path d="M0.3 21.75 L0.2 23.6 -1.9 21.75 -2.65 23.5 -3.9 22.05 -5.05 23.1 -5.1 21.4 -5.9 22.05 Q-4.35 18.65 0.2 18.65 L8.5 18.3 Q8.5 20.25 7.25 21.65 L7.25 21.4 5.45 22.2 6.7 19.75 1.8 19.75 2.35 22.55 0.3 21.75" fill="#660000" fill-rule="evenodd" stroke="none"/>
      <path d="M11.95 16.65 Q15.65 16.4 17.4 15.5 18.0 18.1 20.65 20.5 L18.55 20.35 19.45 21.8 16.45 21.5 16.95 22.9 14.75 22.05 14.85 23.95 13.6 22.95 Q13.6 19.65 11.95 16.65" fill="#660000" fill-rule="evenodd" stroke="none"/>
      <path d="M18.7 14.2 Q18.85 14.6 18.6 15.75 16.4 17.9 6.8 18.35 -3.95 18.85 -9.95 15.35 L-10.1 13.85 Q-1.75 17.5 18.7 14.2" fill="#000000" fill-rule="evenodd" stroke="none"/>
      <path d="M2.25 15.85 Q3.2 17.9 2.85 17.95 1.2 21.1 0.6 20.9 L-1.4 19.35 Q1.8 15.9 2.25 15.85" fill="#000000" fill-rule="evenodd" stroke="none"/>
      <path d="M5.85 16.25 Q6.3 16.25 10.05 19.1 9.05 20.65 8.35 21.0 7.85 21.25 5.6 18.4 5.3 18.4 5.85 16.25" fill="#000000" fill-rule="evenodd" stroke="none"/>
      <path d="M6.9 15.6 L6.45 15.9 Q-1.45 16.8 -7.25 15.05 -11.6 13.7 -12.1 12.3 -12.45 11.45 -12.55 7.0 -12.65 1.95 -11.65 1.45 L-11.2 1.4 Q-8.05 2.15 -2.2 6.65 3.65 11.1 6.85 15.15 7.05 15.4 6.9 15.6" fill="#000000" fill-rule="evenodd" stroke="none"/>
      <path d="M-11.05 12.0 Q-11.4 11.1 -11.6 7.1 -11.8 2.8 -11.1 2.45 -8.1 3.45 -3.05 7.15 2.4 11.2 5.4 15.05 -5.7 15.8 -11.05 12.0" fill="#a30000" fill-rule="evenodd" stroke="none"/>
      <path d="M1.5 10.9 Q3.9 13.1 5.4 15.05 -5.7 15.8 -11.05 12.0 L-11.2 10.5 Q-10.55 10.5 -8.55 11.15 -7.0 11.65 -5.9 11.15 L-6.65 12.65 Q-6.75 13.05 -5.5 13.65 1.45 16.1 1.5 10.9" fill="#660000" fill-rule="evenodd" stroke="none"/>
      <path d="M8.05 15.55 Q7.75 16.3 6.5 16.55 3.95 16.85 2.85 15.7 0.15 11.75 -5.65 7.6 -10.4 4.2 -12.8 3.45 L-13.15 3.1 Q-13.35 1.6 -11.85 0.2 L-11.4 0.1 Q-8.5 0.3 -1.9 5.15 5.25 10.4 8.0 15.25 L8.05 15.55" fill="#000000" fill-rule="evenodd" stroke="none"/>
      <path d="M6.95 15.4 Q5.6 16.2 3.75 15.2 1.1 11.2 -4.8 7.0 -9.6 3.6 -12.0 2.85 -12.1 1.85 -11.2 1.1 -8.5 1.3 -2.45 5.7 4.25 10.6 6.95 15.4" fill="#a30000" fill-rule="evenodd" stroke="none"/>
      <path d="M6.95 15.4 Q5.6 16.2 3.75 15.2 L-1.9 9.2 1.9 11.85 Q2.15 9.45 -4.45 4.35 3.65 9.65 6.95 15.4" fill="#660000" fill-rule="evenodd" stroke="none"/>
      <path d="M20.2 1.85 L20.65 1.9 Q22.2 2.75 20.75 12.75 20.2 14.15 15.8 15.35 L2.05 15.8 1.65 15.55 Q1.5 15.3 1.7 15.1 5.0 11.1 11.05 6.8 17.05 2.5 20.2 1.85" fill="#000000" fill-rule="evenodd" stroke="none"/>
      <path d="M3.2 15.0 Q6.35 11.25 11.9 7.35 17.1 3.75 20.1 2.9 20.75 3.25 20.4 7.55 20.1 11.5 19.7 12.45 14.1 16.05 3.2 15.0" fill="#a30000" fill-rule="evenodd" stroke="none"/>
      <path d="M14.25 11.6 Q14.25 10.25 13.2 10.5 L14.95 8.55 Q15.25 9.1 14.85 11.75 14.6 13.15 16.75 12.05 17.15 9.95 16.35 8.25 15.55 6.65 14.3 6.2 L20.1 2.9 Q20.75 3.25 20.4 7.55 20.1 11.5 19.7 12.45 14.1 16.05 3.2 15.0 L5.3 12.75 Q6.3 14.0 8.7 14.2 L12.5 13.65 Q14.25 12.95 14.25 11.6" fill="#660000" fill-rule="evenodd" stroke="none"/>
      <path d="M21.7 3.5 L21.35 3.85 Q18.95 4.55 14.1 7.8 8.1 11.8 5.35 15.65 4.1 16.8 1.65 16.4 0.4 16.15 0.15 15.4 L0.15 15.05 Q3.05 10.3 10.4 5.25 17.15 0.6 20.05 0.45 L20.5 0.6 Q22.0 1.9 21.7 3.5" fill="#000000" fill-rule="evenodd" stroke="none"/>
      <path d="M1.25 15.25 Q4.1 10.55 10.95 5.85 17.1 1.6 19.85 1.45 20.75 2.2 20.6 3.2 18.2 3.9 13.25 7.2 7.25 11.2 4.4 15.1 L1.25 15.25" fill="#a30000" fill-rule="evenodd" stroke="none"/>
      <path d="M19.85 1.45 Q20.75 2.2 20.6 3.2 18.2 3.9 13.25 7.2 7.25 11.2 4.4 15.1 L2.95 15.5 Q5.15 12.0 9.55 8.75 13.55 6.1 17.5 3.4 14.8 3.7 10.95 5.85 17.15 1.55 19.85 1.45" fill="#660000" fill-rule="evenodd" stroke="none"/>
      <path d="M-8.8 7.5 L-9.35 6.9 -8.95 7.7 -8.8 7.5 M-7.9 4.2 L-8.75 6.15 -7.55 7.4 -8.2 8.35 -6.85 9.8 -8.9 11.35 -9.05 10.6 Q-10.0 6.35 -11.5 6.05 -12.05 5.95 -12.85 6.85 L-13.15 7.25 -15.25 5.7 -13.8 4.7 -14.9 3.15 -12.05 3.35 -11.3 1.55 -9.95 4.2 -7.9 4.2" fill="#000000" fill-rule="evenodd" stroke="none"/>
      <path d="M-9.95 7.2 Q-11.2 4.3 -12.95 6.4 L-14.05 5.7 -12.8 4.95 -13.6 3.85 -11.6 4.3 -11.2 3.0 -10.45 4.95 -8.9 4.9 -9.3 6.25 -8.2 7.45 -8.8 8.4 -7.55 9.75 -9.1 10.5 Q-9.35 8.65 -9.95 7.2" fill="#a30000" fill-rule="evenodd" stroke="none"/>
      <path d="M18.05 7.45 L18.2 7.65 18.6 6.85 18.05 7.45 M20.55 1.5 L21.25 3.3 24.15 3.05 23.05 4.65 24.5 5.65 22.4 7.2 22.1 6.8 Q21.3 5.9 20.75 6.0 19.25 6.3 18.3 10.55 L18.15 11.3 16.1 9.75 17.45 8.3 16.8 7.35 18.0 6.1 17.15 4.15 19.2 4.15 20.55 1.5" fill="#000000" fill-rule="evenodd" stroke="none"/>
      <path d="M23.3 5.6 L22.2 6.35 Q20.4 4.25 19.2 7.15 18.6 8.6 18.35 10.45 L16.8 9.7 18.05 8.35 17.45 7.4 18.55 6.2 18.1 4.85 19.7 4.9 20.45 2.95 20.85 4.25 22.85 3.75 22.05 4.9 23.3 5.6" fill="#660000" fill-rule="evenodd" stroke="none"/>
    </g>
  </defs>
</svg>
